!!!!SEGMENT: pl-kj--bj-muz-345-iii--002_sowinski-wojciech--les-charmes-de-la-campagne-op-11-no-2.krn
!!!cenid: 18xx:3588
!!!COM: Sowiński, Wojciech
!!!COM-rismid: pe30008543
!!!CDT: ~1803-1880/03/05
!!!CNT:
!!!OTL: Les charmes de la campagne op. 11
!!!PDT:
!!!AGN:
!!!SMS-siglum: PL-Kj
!!!SMS-shelfmark: BJ Muz. 345 III
!!!SMS-shelfwork: 002 W
!!!SMS-variant:
!!!SMS-altvar:
!!!NIFC-rismid:
!!!URL-scan: https://polona.pl/item/les-charmes-de-la-campagne-polonaises-pastorales-pour-le-piano-op-11,ODU4Mzk3NjQ/11/#info:metadata
!!!ONB-nifc: UWAGA: Polonez No. 2, skany 7-12
!!!AIN: 1 piano
!!!key: G
**kern	**kern	**fing	**dynam
*part1	*part1	*	*part1
*staff2	*staff1	*	*
*I"Piano	*I"Piano	*	*
*Ipiano	*Ipiano	*	*
*ICklav	*ICklav	*	*
*IGsolo	*IGsolo	*	*
*>[A,B,B1,B,B2,C,C1,C,C2,A,B,B1,B,B2]	*>[A,B,B1,B,B2,C,C1,C,C2,A,B,B1,B,B2]	*>[A,B,B1,B,B2,C,C1,C,C2,A,B,B1,B,B2]	*>[A,B,B1,B,B2,C,C1,C,C2,A,B,B1,B,B2]
*>A	*>A	*>A	*>A
*clefF4	*clefG2	*	*
*k[f#]	*k[f#]	*	*
*G:	*G:	*	*
*M3/4	*M3/4	*	*
=1	=1	=1	=1
*	*ped	*	*
!	!LO:TX:a:t=POLONAISE \nPASTORALE. \nN.°. 2.	!	!LO:DY:rj
8GG/	2dd\	.	p
8dL 8B 8G 8D\	.	.	.
8d 8B 8G 8D\	.	.	.
8dJ 8B 8G 8D\	.	.	.
*	*Xped	*	*
8cL 8A 8D\	8ee\L	.	.
8cJ 8A 8D\	8ff#\J	.	.
=2	=2	=2	=2
*	*ped	*	*
8GG\L	(16gg\LL	.	.
.	16ff#\	.	.
8dJ 8B 8G 8D\	16gg\	.	.
.	16aa\JJ)	.	.
8dL 8B 8G 8D\	4.bb\	.	.
8d 8B 8G 8D\	.	.	.
8d 8B 8G 8D\	.	.	.
8dJ 8B 8G 8D\	16gg\LL	.	.
*	*Xped	*	*
.	16ff#\JJ	.	.
=3	=3	=3	=3
*^	*	*	*
!LO:N:vis=2	!	!	!	!
8C/L	2C\	16ee\LL	.	f
*	*	*ped	*	*
.	.	32r	.	.
.	.	32bb\K	.	.
8A 8E/	.	16aa\	.	.
.	.	16gg#X\JJ	.	.
8A 8E/	.	[4aa^<\	.	<
8AJ 8E/	.	.	.	.
8C/L	4C\	16.aa\LL]	.	.
.	.	32bb\K	.	.
8AJ 8E/	.	16.aa\	.	.
*	*	*Xped	*	*
.	.	32ggn\JJk	.	.
*v	*v	*	*	*
!LO:LB:g=original	!LO:LB:g=original	!	!
=4	=4	=4	=4
*	*ped	*	*
8D\	16ff#\LL	.	.
.	32r	.	.
.	(32eee\K	.	.
4c 4A 4F# 4D\	16ddd\)	.	rfz
.	32r	.	.
.	(32ccc#X\JJk	.	.
.	16ddd\LL)	.	.
.	32r	.	.
.	(32eee\K	.	.
8cL 8A 8F# 8D\	16cccn\)	.	.
.	32r	.	.
.	(32ddd\JJk	.	.
8c 8A 8F# 8D\	16bb\LL)	.	.
.	32r	.	.
.	(32ccc\K	.	.
8cJ 8A 8F# 8D\	16aa\)	.	.
.	32r	.	.
*	*Xped	*	*
.	32ddd\JJk	.	.
=5	=5	=5	=5
8GG\L	4.ddSSs\	.	rfz
8d 8B 8G\	.	.	.
8d 8B 8G\	.	.	.
8dJ 8B 8G\	(8dd\L	.	.
8cL 8A 8D\	8ee\	.	.
8cJ 8A 8D\	8ff#\J)	.	.
=6	=6	=6	=6
8GG\L	(16gg\LL	.	.
.	16ff#\	.	.
8d 8B 8G\	16gg\	.	.
.	16aa\JJ)	.	.
8d 8B 8G\	4bb^<\	.	.
8dJ 8B 8G\	.	.	.
8f#L 8dn 8G#X\	8..bb^<\L	.	.
8f#J 8d 8G#\	.	.	.
.	32bb\Jkk	.	.
=7	=7	=7	=7
*^	*	*	*
!LO:N:vis=2	!	!	!	!
8A/L	2A\	(8aa\L	.	>
8f# 8d/	.	16bb\L	.	.
.	.	16ccc#X\JJ	.	.
8f# 8d/	.	16ddd\LL	.	.
.	.	16eee\	.	.
8f#J 8d/	.	16eee#X\	.	.
.	.	16fff#\JJ	.	.
8A/L	4A\	16ggg\LL	.	.
.	.	16fff#\	.	.
8gJ 8e 8c#X/	.	16eee#\	.	]
.	.	16aaa\JJ)	.	.
*v	*v	*	*	*
!LO:PB:g=original	!LO:PB:g=original	!	!
=8	=8	=8	=8
8f# 8d\	8ddd\L	.	f
*	*8va	*	*
.	16qqeeee/	.	.
8r	(16dddd\L	.	.
.	16cccc#X\JJ)	.	.
4r	8dddd\L	.	p
.	16qqeee/	.	.
.	(16ddd\L	.	.
.	16ccc#X\JJ)	.	.
4r	8ddd\L	.	.
*	*X8va	*	*
!	!LO:TX:a:t=loco	!	!
.	8dd\J	.	.
=9	=9	=9	=9
8GG\L	2dd 2b\	.	f
8dJ 8B 8G 8D\	.	.	.
8dL 8B 8G 8D\	.	.	.
8d 8B 8G 8D\	.	.	.
8cn 8A 8D\	8eeL 8cc\	.	.
8cJ 8A 8D\	8ff#J 8a\	.	.
=10	=10	=10	=10
8GL 8GG\	(16ggLL 16b\	.	.
.	16ff#\	.	.
8dJ 8B 8G 8D\	16gg\	.	.
.	16aa\JJ)	.	.
8dL 8B 8G 8D\	4.bb^<\	.	< >
8d 8B 8G 8D\	.	.	.
8d 8B 8G 8D\	.	.	.
!	!LO:TUP:a:problem=klamra łukowa	!	!
8dJ 8B 8G 8D\	24aa\LL	.	] ]
.	24gg\	.	.
.	24ff#\JJ	.	.
=11	=11	=11	=11
*^	*	*	*
!LO:N:vis=2	!	!	!	!
8C/L	2C\	8ee\L	.	.
.	.	16qqbb/	.	.
8A 8E/	.	(16aa\L	.	.
.	.	16gg#X\JJ)	.	.
8A 8E/	.	4aa^<\	.	.
8AJ 8E/	.	.	.	.
8C/L	4C\	(16.aa\LL	.	.
.	.	32bb\K	.	.
8AJ 8E/	.	16.aa\	.	.
.	.	32gg#\JJk)	.	.
*v	*v	*	*	*
!LO:LB:g=original	!LO:LB:g=original	!	!
=12	=12	=12	=12
8D\	16ff#\LL	.	f
.	32r	.	.
.	(32eee\K	.	.
4c 4A 4F# 4D\	16ddd\)	.	rfz
.	32r	.	.
.	(32ccc#X\JJk	.	.
.	16ddd\LL)	.	.
.	32r	.	.
.	(32eee\K	.	.
8D\L	16cccn\)	.	.
.	32r	.	.
.	(32ddd\JJk	.	.
8c 8A 8F#\	16bb\LL)	.	.
.	32r	.	.
.	(32ccc\K	.	.
8D\J	16aa\)	.	.
.	32r	.	.
.	32ddd\JJk	.	.
=13	=13	=13	=13
8GG/	4.dd\	.	rfz
8dL 8B 8G\	.	.	.
8d 8B 8G\	.	.	.
8dJ 8B 8G\	(8ddL 8b\	.	.
8cL 8A 8D\	8ee 8cc\	.	.
8cJ 8A 8D\	8ff#J 8a\)	.	.
=14	=14	=14	=14
8GG\L	(16ggLL 16b\	.	.
.	16ff#\	.	.
8dJ 8B 8G 8D\	16gg\	.	.
.	16aa\JJ)	.	.
8dL 8B 8G 8D\	4.bb\	.	.
8d 8B 8G 8D\	.	.	.
8d 8B 8G 8D\	.	.	.
8dJ 8B 8G 8D\	(16gg\LL	.	.
.	16ff#\JJ)	.	.
=15	=15	=15	=15
*^	*	*	*
*	*	*ped	*	*
!LO:N:vis=2	!	!	!	!
8C/L	2C\	16dd#X\LL	.	.
.	.	32r	.	.
.	.	32ee\K	.	.
8A 8E/	.	16fff#\	.	.
.	.	32r	.	.
.	.	32eee\JJk	.	.
8A 8E/	.	16ddd\LL	.	.
.	.	32r	.	.
.	.	32ccc\K	.	.
8AJ 8E/	.	16bb\	.	.
.	.	32r	.	.
*	*	*Xped	*	*
.	.	32aa\JJk	.	.
8D/L	4D\	16gg\LL	.	.
.	.	32r	.	.
.	.	32ff#\K	.	.
8cJ 8A/	.	16ddd\	.	.
.	.	32r	.	.
.	.	32ff#\JJk	.	.
*v	*v	*	*	*
!LO:LB:g=original	!LO:LB:g=original	!	!
=16	=16	=16	=16
8r	(2aa 2ff# 2dd 2cc\	.	.
8D\L	.	.	.
8F#\	.	.	.
8D\J	.	.	.
8G 8GG\	8gg 8b\)	.	.
8r	8r	.	.
=17!|:	=17!|:	=17!|:	=17!|:
*>B	*>B	*>B	*>B
*	*ped	*	*
8DL 8DD/	8d/L	.	.
16DL 16DD/	16d/L	.	.
!	!LO:TX:b:t=rinf.	!	!
16DJJ 16DD/	16d/JJ	.	.
8DL 8DD/	8d/L	.	.
8D 8DD/	8d/	.	.
8D 8DD/	8d/	.	.
8DJ 8DD/	8d/J	.	.
=18	=18	=18	=18
(8F#\L	(8f#/L	.	.
8D\J)	8d/J)	.	.
*	*Xped	*	*
8BB/L	8B/L|	.	.
16AA#X/L	16A#X/L	.	.
16BB/JJ	16B/JJ	.	.
8C#X/L	8c#X'/L	.	.
8FF#/J	8F#'/J	.	.
=19	=19	=19	=19
8BB/	8B/	.	.
8r	4f#^</	.	.
4d 4B\	.	.	.
.	16g/LL	.	.
.	16f#/JJ	.	.
8c#XL 8A#X\	(16e#X/LL	.	p
.	16f#/	.	.
8F#\J	16g#X/	.	.
.	16a#X/JJ)	.	.
!LO:LB:g=original	!LO:LB:g=original	!	!
=20	=20	=20	=20
*	*ped	*	*
8d 8B\	8b\L|	.	.
8r	(16dd\L	.	.
.	16ff#\JJ)	.	.
4r	8bb\L|	.	.
.	(16ddd\L	.	.
.	16fff#\JJ)	.	.
4r	8bbb\	.	.
*	*Xped	*	*
.	8r	.	.
=21	=21	=21	=21
8EL 8EE/	8e/L	.	ff
16EL 16EE/	16e/L	.	.
16EJJ 16EE/	16e/JJ	.	.
8EL 8EE/	8e/L	.	.
8E 8EE/	8e/	.	.
8E 8EE/	8e/	.	.
8EJ 8EE/	8e/J	.	.
=22	=22	=22	=22
8GL 8GG/	8g/L	.	.
8EJ 8EE/	8e/J	.	.
4BB 4BBB/	8B/L	.	.
.	16B/L	.	.
.	16B/JJ	.	.
4BB-X 4BBB-X/	8B-X/L	.	.
.	16B-/L	.	.
.	16B-/JJ	.	.
=23	=23	=23	=23
8AA 8AAA/	8A/	.	.
8r	4a^</	.	.
4f# 4d\	.	.	.
.	(16bn/LL	.	.
.	16a/JJ	.	.
8gL 8e\	16g#X/LL	.	.
.	16a/	.	.
8A\J	16b/	.	.
.	16cc#X/JJ)	.	.
!LO:LB:g=original	!LO:LB:g=original	!	!
=24	=24	=24	=24
*^	*	*	*
8F#/L	2D\	4.dd\	.	p
8A/	.	.	.	.
8d/	.	.	.	.
8A/	.	(16cc#X\LL	.	.
.	.	16dd\JJ	.	.
8c#X/	4G 4D\	16ff#\LL	.	.
.	.	16ee\	.	.
8A/J	.	16cc#\	.	.
.	.	16a\JJ)	.	.
=25	=25	=25	=25	=25
8F#/L	2D\	4.dd\	.	.
8A/	.	.	.	.
8d/	.	.	.	.
*	*	*Xtuplet	*	*
8A/	.	(24ff#\LL	.	.
.	.	24ee\	.	.
.	.	24ff#\JJ	.	.
8c#X/	4G 4D\	16aa\LL	.	.
.	.	16gg\	.	.
8A/J	.	16ee\	.	.
.	.	16ff#\JJ)	.	.
=26	=26	=26	=26	=26
8F#/L	2D\	(16dd\LL	.	.
.	.	16ff#\	.	.
8A/	.	16aa\	.	.
.	.	16gg#X\JJ	.	.
8d/	.	16aa\LL	.	.
.	.	16ccc#X\	.	.
8A/	.	16ddd\	.	.
.	.	16ddd#X\JJ	.	.
8c#X/	4G 4D\	16fff#\LL	.	.
.	.	16eee\	.	.
8A/J	.	16ccc#\	.	.
.	.	16aa\JJ)	.	.
!LO:LB:g=original	!LO:LB:g=original	!	!	!
=27	=27	=27	=27	=27
8F#/L	2D\	(16ddd\LL	.	.
.	.	16ccc\	.	.
8A/	.	16ddd\	.	.
.	.	16eee\JJ	.	.
8d/	.	8fff#\L	.	.
8A/	.	16eee\L	.	.
.	.	16fff#\JJ	.	.
8c#X/	4G 4D\	16aaa\LL	.	.
.	.	16ggg\	.	.
8A/J	.	16eee\	.	.
.	.	16fff#\JJ)	.	.
*v	*v	*	*	*
=28	=28	=28	=28
*	*ped	*	*
8d 8A 8F# 8D\	8ddd\L	.	.
8r	16fff#\L	.	.
.	16aaa\JJ	.	.
4r	8dddd\L	.	pp
.	16ff#\L	.	.
.	16aa\JJ	.	.
!	!LO:TX:t=P:problem=mixed beam	!	!
4r	8ddd\L	.	.
.	16f#/L	.	.
.	16a/JJ	.	.
=29	=29	=29	=29
2.r	8dd/L|	.	.
.	16d/L	.	.
.	16d/JJ	.	.
.	8d/L	.	.
!	!LO:TX:b:t=ritenuto	!	!
.	8dd/	.	.
.	8dd/	.	.
.	8dd/J	.	.
!LO:PB:g=original	!LO:PB:g=original	!	!
=30	=30	=30	=30
*	*ped	*	*
.	.	.	.
!	!LO:TX:a:t=a tempo.	!	!
!	!LO:TX:b:t=espress&colon;	!	!
8FnL 8FFn\	16dd\LL	.	.
.	16ee-X\	.	.
8F\J	16b\	.	.
.	16cc\JJ	.	.
8fnL 8c 8A\	[4cc\	.	.
8F\J	.	.	.
8fL 8c 8A\	(16cc\LL]	.	.
.	16b\	.	.
8F\J	16cc\	.	.
.	[16gg\JJ)	.	.
=31	=31	=31	=31
8FnL 8FFn\	(16gg\LL]	.	.
.	16ee\	.	.
8F\J	16ffn\	.	.
.	16ddd\JJ)	.	.
8fnL 8d 8B-X\	[4bb-X\	.	>
8Fn\J	.	.	]
*	*Xped	*	*
.	.	.	.
8fL 8d 8B-\	16bb-\LL]	.	.
.	16aa\	.	.
8F\J	16ccc\	.	.
.	16aa\JJ	.	.
=32	=32	=32	=32
8fnL 8c 8A\	(16aa\LL	.	.
.	16gg\	.	>
8Fn\J	16bb-X\	.	]
.	16gg\JJ)	.	.
8fL 8c 8A\	(16gg\LL	.	.
.	16ffn\	.	>
8F\J	16aa\	.	]
.	16ff\JJ)	.	.
8fL 8c 8A\	(16ff\LL	.	.
.	16ee-X\	.	>
8F\J	16gg\	.	]
.	16ee-\JJ)	.	.
!LO:LB:g=original	!LO:LB:g=original	!	!
=33	=33	=33	=33
8fnL 8d 8B-X\	16ee-X\LL	.	.
.	16cc#X\	.	.
8Fn\J	16dd\	.	.
.	16gg\JJ	.	.
8fL 8d 8B-\	4ffn\	.	>
8F\J	.	.	]
8fL 8d 8B-\	4r	.	.
8F\J	.	.	.
=34	=34	=34	=34
*^	*	*	*
8FF#X/	2ryy	(16dd\LL	.	.
.	.	16ee-X\	.	.
8f#L 8d 8A 8F#X\	.	16a\	.	.
.	.	16b-X\JJ)	.	.
8f# 8d 8A 8F#\	.	[4cc\	.	.
8f#J 8d 8A 8F#\	.	.	.	.
8F#/L	4F#\	(16cc\LL]	.	.
.	.	16bn\	.	.
8d 8c/J	.	16cc\	.	.
.	.	[16aa\JJ)	.	.
=35	=35	=35	=35	=35
!LO:N:vis=2	!	!	!	!
8G/L	2G\	(16aa\LL]	.	.
.	.	16ff#X\	.	.
8d 8B/	.	16gg\	.	.
.	.	16aa\JJ)	.	.
8d 8B/	.	[4bb-X\	.	.
8dJ 8B/	.	.	.	.
8En/L	4En\	(16bb-\LL]	.	.
.	.	16aa\	.	.
8d-XJ 8B/	.	16bb-\	.	.
.	.	16gg\JJ)	.	.
=36	=36	=36	=36	=36
!LO:N:vis=2	!	!	!	!
8Fn/L	2Fn\	(16ffn\LL	.	.
.	.	16ff\	.	.
8d 8B-X/	.	16bb\	.	.
.	.	16ddd\JJ)	.	.
8d 8B-/	.	[4fffn\	.	.
8dJ 8B-/	.	.	.	.
8F/L	4F\	16fff\LL]	.	.
.	.	(16eee-X\	.	.
8e-XJ 8c 8A/	.	16ccc\	.	.
.	.	16ddd\JJ)	.	.
!LO:LB:g=original	!LO:LB:g=original	!	!	!
=37	=37	=37	=37	=37
!LO:N:vis=2	!	!	!	!
8D/L	2D\	8bb-X\L	.	.
8d 8B-X 8Fn/	.	16ffn\L	.	<
.	.	(16fffn\JJ	.	.
8d 8B- 8F/	.	16ff\LL	.	.
.	.	16fff\	.	.
8dJ 8B- 8F/	.	16ff\	.	.
.	.	16fff\JJ	.	.
8D/L	4D\	16ff#X\LL	.	.
.	.	16fff#X\	.	.
8dJ 8B- 8F#X/	.	16ff#\	.	.
.	.	16fff#\JJ)	.	[
=38	=38	=38	=38	=38
.	.	16qqgg/	.	.
!LO:ACC:color=grey	!LO:ACC:color=grey	!	!	!
!LO:N:vis=2	!	!	!	!
8E-X/L	2E-\	8..aaa\L	.	.
8e-X 8Bn 8G/	.	.	.	.
.	.	32ggg\Jkk	.	.
!	!	!	!	!LO:DY:rj
8e- 8B 8G/	.	(16fffn\LL	.	f
.	.	16eee-X\	.	.
8e-J 8B 8G/	.	16ddd\	.	.
.	.	16ccc\JJ	.	.
8Fn/L	4Fn\	16bb\LL	.	.
.	.	16aa\	.	.
8e-J 8c/	.	16fff\	.	.
.	.	16aa\JJ)	.	.
=39	=39	=39	=39	=39
!LO:N:vis=2	!	!	!	!
8D/L	2D\	8bb-X\L	.	p
8d 8B-X 8Fn/	.	16fffn\L	3	.
.	.	16fff\JJ	2	.
8d 8B- 8F/	.	16fff\LL	1	.
.	.	16fff\	3	.
8dJ 8B- 8F/	.	16fff\	2	.
.	.	16fff\JJ	1	.
8D/L	4D\	16fff#X\LL	4	<
.	.	16fff#\	3	.
8dJ 8B- 8F#X/	.	16fff#\	2	.
.	.	16fff#\JJ	1	.
*v	*v	*	*	*
=40	=40	=40	=40
*	*8va	*	*
*^	*	*	*
!LO:N:vis=2	!	!	!	!
8E-X/L	2E-X\	16aaa\LL	4	f
.	.	16ggg\	3	.
8e-X 8B-X 8G/	.	16ggg\	2	.
.	.	16ggg\JJ	1	.
8e- 8B- 8G/	.	16ggg\LL	3	.
.	.	16ggg\	2	.
8e-J 8B- 8G/	.	16ggg\	1	.
.	.	16aaa\JJ	2	.
!LO:ACC:color=grey	!LO:ACC:color=grey	!	!	!
8E-X/L	4E-X\	16bbb-X\LL	3	.
.	.	16aaa\	.	.
8c#XJ 8B-/	.	16bbb-\	.	.
.	.	16ggg\JJ	.	.
!LO:LB:g=original	!LO:LB:g=original	!	!	!
=41	=41	=41	=41	=41
8D/L	4D\	16fff#X\LL	2	>
.	.	16aaa\	.	.
8AJ 8F#X/	.	16cccc#X\	3	]
.	.	16dddd\JJ	4	.
!LO:TX:b:t=marcato.	!	!	!	!
8C/L	4C\	16eeee-X\LL	5	>
.	.	16ccccn\	3	.
8AJ 8D/	.	16aaa\	.	]
.	.	16fff#X\JJ	2	.
8BB-X/L	4BB-\	16ddd\LL	1	>
.	.	16ggg\	.	.
8GJ 8D/	.	16bbb-X\	.	]
.	.	16dddd\JJ	.	.
=42	=42	=42	=42	=42
8AA/L	4AA\	16ccccn\LL	5	>
.	.	16aaa\	3	.
8F#J 8D/	.	16fff#X\	.	]
.	.	16ccc\JJ	.	.
8GG/L	4GG\	16bb-X\LL	.	>
.	.	16ddd\	.	.
8GJ 8D 8BB/	.	16ggg\	.	]
.	.	16bbb-X\JJ	.	.
8BBn/L	4BBn\	16aaa-X\LL	3	>
.	.	16fffn\	2	.
8FnJ 8D/	.	16ddd\	.	]
.	.	16aa-X\JJ	2	.
=43	=43	=43	=43	=43
8C/L	4C\	16gg\LL	3	>
.	.	16ccc\	.	.
8GJ 8E-X/	.	16eee-X\	.	]
.	.	16ggg\JJ	.	.
8D/L	4D\	16fffn\LL	.	>
.	.	16ddd\	.	.
8BnJ 8Fn/	.	16bb\	.	]
.	.	16ff#\JJ	.	.
8E-/L	4E-\	16ee-X/LL	.	>
.	.	16gg/	.	.
8cJ 8G/	.	16ccc/	.	] <
.	.	16eee-/JJ	.	.
!LO:LB:g=original	!LO:LB:g=original	!LO:LB:g=original	!	!
=44	=44	=44	=44	=44
8D/L	4D\	16ddd/LL	.	>
.	.	16bb-X/	.	.
8B-XJ 8G/	.	16gg/	.	]
.	.	16dd/JJ	.	.
*v	*v	*	*	*
*	*X8va	*	*
*^	*	*	*
!	!	!LO:TX:a:t=loco.	!	!
8C#X/L	4C#\	(16ee\LL	.	f
.	.	16gg\	.	.
!LO:TX:a:t=m.d.	!	!	!	!
8c#XJ 8B-X 8G/	.	16bb-X\	.	.
.	.	16gg\JJ	.	.
8C#/L	4C#\	16ee\LL	.	.
.	.	16cc#X\	.	.
8c#J 8B- 8G/	.	16b-\	.	.
.	.	16g\JJ)	.	.
*	*	*Xped	*	*
*v	*v	*	*	*
=45	=45	=45	=45
8dL 8D\|	(16f#X\LL	.	p
.	16dd\	.	.
(8c#X\J	16a\	.	.
.	16ee\JJ)	.	.
8d\L	(16ff#\LL	.	.
.	16dd\	.	.
8G#X\	16ffn\	.	.
.	16bb\JJ	.	.
8A\	16aa\LL	.	.
.	16ff#X\	.	.
8AA\J)	16ee\	.	.
!	!LO:ACC:color=grey	!	!
.	16ccc#X\JJ)	.	.
=46	=46	=46	=46
8D\L|	16ddd\LL	.	.
.	16ff#\	.	.
(8c#X\	16aa\	.	.
.	16eee\JJ	.	.
*	*8va	*	*
8d\	16fff#\LL	.	.
.	16ddd\	.	.
8G#X\	16fffn\	.	.
.	16bbb\JJ	.	.
8A\	16aaa\LL	.	.
.	16fff#X\	.	.
8AA\J)	16eee\	.	.
.	16cccc#X\JJ	.	.
!LO:PB:g=original	!LO:PB:g=original	!	!
=47	=47	=47	=47
8F# 8D\	8dddd\L	.	.
*	*X8va	*	*
!	!LO:TX:a:t=loco.	!	!
.	16qqeee/	.	.
8r	16ddd\L	.	.
.	16ccc#X\JJ	.	.
4r	8ddd\L	.	.
.	16qqee/	.	.
.	(16dd\L	.	.
.	16cc#X\JJ)	.	.
4r	8dd\L	.	.
.	16qqee/	.	.
.	(16dd\L	.	.
.	16cc#\JJ)	.	.
=48	=48	=48	=48
2.r	(8dd\L	.	.
.	8dd#X\	.	.
!	!LO:TX:b:t=ritard&colon;	!	!
.	8ee\	.	.
.	8a\	.	.
.	8dd#\	.	.
.	8ccn\J)	.	.
=49	=49	=49	=49
!	!LO:TX:a:t=Tempo 1mo..	!	!
.	(<16qqb/	.	rfz
8GG/	2dd 2b\)	.	.
8dL 8B 8G 8D\	.	.	.
8d 8B 8G 8D\	.	.	.
8dJ 8B 8G 8D\	.	.	.
8cL 8A 8D\	8eeL 8cc\	.	.
8cJ 8A 8D\	8ff#J 8a\	.	.
=50	=50	=50	=50
8GL 8GG\	16gg\LL	.	.
.	16ff#\	.	.
8dJ 8B 8G 8D\	16gg\	.	<
.	16aa\JJ	.	.
8dL 8B 8G 8D\	4.bb^<\	.	.
8d 8B 8G 8D\	.	.	.
8d 8B 8G 8D\	.	.	.
8dJ 8B 8G 8D\	16gg\LL	.	.
.	16ff#\JJ	.	.
!LO:LB:g=original	!LO:LB:g=original	!	!
=51	=51	=51	=51
*^	*	*	*
!LO:N:vis=2	!	!	!	!
8C/L	2C\	16ee\LL	.	f
.	.	32r	.	.
.	.	32bb\K	.	.
8A 8E/	.	16aa\	.	.
.	.	16gg#X\JJ	.	.
8A 8E/	.	4..aa\	.	>
8AJ 8E/	.	.	.	]
8C/L	4C\	.	.	.
8AJ 8E/	.	.	.	.
.	.	16ggn\	.	.
*v	*v	*	*	*
=52	=52	=52	=52
8D\	16ff#\LL	.	.
.	32r	.	.
.	(32eee\K	.	.
4c 4A 4F# 4D\	16ddd\)	.	rfz
.	32r	.	.
.	(32ccc#X\JJk	.	.
.	16ddd\LL)	.	>
.	32r	.	.
.	(32eee\K	.	.
8D\L	16cccn\)	.	.
.	32r	.	.
.	(32ddd\JJk	.	.
8c 8A 8F#\	16bb\LL)	.	.
.	32r	.	.
.	(32ccc\K	.	.
8D\J	16aa\)	.	.
.	32r	.	.
.	(32ddd\JJk	.	]
=53	=53	=53	=53
8GG/	4.dd\)	.	f
8dL 8B 8G\	.	.	.
8d 8B 8G\	.	.	.
8dJ 8B 8G\	(8ddL 8b\	.	.
8cL 8A 8D\	8ee 8cc\	.	.
8cJ 8A 8D\	8ff#J 8a\)	.	.
!LO:LB:g=original	!LO:LB:g=original	!	!
=54	=54	=54	=54
8GL 8GG\	16ggLL 16b\	.	<
.	(16ff#\	.	.
8dJ 8B 8G 8D\	16gg\	.	.
.	16aa\JJ)	.	.
8dL 8B 8G 8D\	4.bb\	.	.
8d 8B 8G 8D\	.	.	.
8d 8B 8G 8D\	.	.	.
8dJ 8B 8G 8D\	(16gg\LL	.	.
.	16ff#\JJ)	.	.
=55	=55	=55	=55
*^	*	*	*
!LO:N:vis=2	!	!	!	!
8C/L	2C\	(16dd#X\LL	.	p
.	.	32ee\K)	.	.
.	.	32r	.	.
8A 8E/	.	16fff#\	.	.
.	.	32r	.	.
.	.	(32eee\JJk	.	.
8A 8E/	.	16ddd\LL)	.	.
.	.	32r	.	.
.	.	(32ccc\K	.	.
8AJ 8E/	.	16bb\)	.	.
.	.	32r	.	.
.	.	(32aa\JJk	.	.
8D/L	4D\	16gg\LL)	.	.
.	.	32r	.	.
.	.	(32ff#\K	.	.
8cJ 8A/	.	16ddd\)	.	.
.	.	32r	.	.
.	.	32ff#\JJk	.	.
*v	*v	*	*	*
=56	=56	=56	=56
*>B1	*>B1	*>B1	*>B1
8r	2aa 2ff# 2dd 2cc\	.	.
8D\L	.	.	.
8F#\	.	.	.
8D\J	.	.	.
8G\L	8gg 8b\	.	.
8GG\J	8r	.	.
=57:|!	=57:|!	=57:|!	=57:|!
*>B2	*>B2	*>B2	*>B2
4D\	4aa 4ff# 4cc\	.	.
4G\	8gg 8b\	.	.
.	16r	.	.
.	16b\KL	.	.
4r	8ee\	.	.
.	16r	.	.
.	16gg\Jk	.	.
!LO:LB:g=original	!LO:LB:g=original	!	!
=58|!	=58|!	=58|!	=58|!
*>C	*>C	*>C	*>C
*Xtuplet	*	*	*
!	!LO:TX:b:t=m.d.	!	!
12E\L	(4bb'\	.	p
12G\	.	.	.
!	!LO:TX:a:t=simplice.	!	!
12B\J	.	.	.
12e\L	4bb'\	.	.
!	!LO:TX:b:t=espressivo.	!	!
12B\	.	.	.
12G\J	.	.	.
12E\L	4bb'\)	.	.
12G\	.	.	.
12B\J	.	.	.
=59	=59	=59	=59
*^	*	*	*
12E/L	4E\	4bb'\	.	.
12G/	.	.	.	.
12B/J	.	.	.	.
.	.	16qqddd/	.	.
12E/L	4E\	(4ccc\	.	.
12A/	.	.	.	.
12c/J	.	.	.	.
12E/L	4E\	4bb\)	.	.
12G/	.	.	.	.
12B/J	.	.	.	.
=60	=60	=60	=60	=60
12D#X/L	4D#\	4bb\	.	.
12F#/	.	.	.	.
12B/J	.	.	.	.
12BB/L	4BB\	(8.aa\L	.	.
12F#/	.	.	.	.
12B/J	.	.	.	.
.	.	16gg\Jk	.	.
12D#/L	4D#\	8.ff#\L	.	.
12F#/	.	.	.	.
12B/J	.	.	.	.
.	.	16bb\Jk)	.	.
=61	=61	=61	=61	=61
12E/L	[2BB\	(4ee\	.	.
12G/	.	.	.	.
12B/J	.	.	.	.
[[<12D#X/L	.	4ff#\	.	.
[[[<12F#/	.	.	.	.
[12B/J	.	.	.	.
4B/]	8F#]]] 8D#]] 8BB\]	8b\L	.	.
.	8r	16ee\L	.	.
.	.	16gg\JJ)	.	.
*v	*v	*	*	*
!LO:LB:g=original	!LO:LB:g=original	!	!
=62	=62	=62	=62
12E\L	(4bb'\	.	.
12G\	.	.	.
12B\J	.	.	.
12e\L	4bb'\	.	.
12B\	.	.	.
12G\J	.	.	.
12E\L	4bb'\)	.	.
12G\	.	.	.
12B\J	.	.	.
=63	=63	=63	=63
*^	*	*	*
12E/L	4E\	4bb'\	.	.
12G/	.	.	.	.
12B/J	.	.	.	.
12E/L	4E\	8.ddd\L	.	>
12A/	.	.	.	.
12c/J	.	.	.	]
.	.	16ccc\Jk	.	.
12E/L	4E\	4bb\	.	.
12G/	.	.	.	.
12B/J	.	.	.	.
=64	=64	=64	=64	=64
12D#X/L	4D#\	4bb\|	.	.
12F#/	.	.	.	.
12B/J	.	.	.	.
12BB/L	4BB\	(8.aa\L	.	.
12F#/	.	.	.	.
12B/J	.	.	.	.
.	.	16gg\Jk	.	.
12D#/L	4D#\	8.ff#\L	.	.
12F#/	.	.	.	.
12B/J	.	.	.	.
.	.	(16bb\Jk)	.	.
*v	*v	*	*	*
=65	=65	=65	=65
12E\L	2ee\)	.	.
12G\	.	.	.
12B\J	.	.	.
12e\L	.	.	.
12B\	.	.	.
12G\J	.	.	.
8E\	4r	.	.
8r	.	.	.
!LO:PB:g=original	!LO:PB:g=original	!	!
=66|!	=66|!	=66|!	=66|!
.	16qqff#/	.	rfz
!LO:TX:a:t=con moto.	!	!	!
8BL 8BB/	2b\	.	.
*clefG2	*	*	*
8f#J 8d#X 8B/	.	.	.
8f#L 8d# 8B/	.	.	.
8f# 8d# 8B/	.	.	.
8f# 8d# 8B/	4b\	.	.
8f#J 8d# 8B/	.	.	.
=67	=67	=67	=67
.	16qqdd/	.	.
8gL 8e 8B/	4.cc\	.	.
8g 8e 8B/	.	.	.
8g 8e 8B/	.	.	.
!	!LO:TX:b:t=poco a poco crescendo:problem=dynamics with extention lines	!	!LO:HPb::t=poco a poco crescendo
8g 8e 8B/	8b\	.	<
8g 8e 8B/	4cc\	.	.
8gJ 8e 8B/	.	.	.
*clefF4	*	*	*
=68	=68	=68	=68
.	16qqee/	.	.
8BL 8BB/	4.dd#X\	.	.
*clefG2	*	*	*
8aJ 8f# 8B/	.	.	.
8aL 8f# 8B/	.	.	.
8a 8f# 8B/	8cc#X\	.	.
8a 8f# 8B/	4dd#\	.	.
8ccJ 8a 8f# 8B/	.	.	.
=69	=69	=69	=69
.	16qqff#/	.	.
8gL 8e 8B/	4.ee\	.	.
8g 8e 8B/	.	.	.
8g 8e 8B/	.	.	.
8g 8e 8B/	8dd#X\	.	.
8g 8e 8B/	4ee\	.	.
8gJ 8e 8B/	.	.	.
*clefF4	*	*	*
!LO:LB:g=original	!LO:LB:g=original	!	!
=70	=70	=70	=70
.	16qqgg/	.	.
8BL 8BB/	4ff#\	.	.
*clefG2	*	*	*
8aJ 8d#X 8B/	.	.	.
8aL 8d# 8B/	4ee#X\	.	.
8a 8d# 8B/	.	.	.
8a 8d# 8B/	4ff#\	.	.
8aJ 8f# 8B/	.	.	.
=71	=71	=71	=71
8gL 8e 8B/	4.gg\	.	.
8g 8e 8B/	.	.	.
8g 8e 8B/	.	.	.
8g 8e 8B/	8bb\	.	[
8g 8e 8B/	4eee\	.	.
8gJ 8e 8B/	.	.	.
=72	=72	=72	=72
.	16qqgg/	.	.
8gL 8e 8c#X 8A#X/	4.ggg^<\	.	.
8g 8e 8c# 8A#/	.	.	.
8g 8e 8c# 8A#/	.	.	.
8g 8e 8c# 8A#/	16fff#\LL	.	.
.	16eee\JJ	.	.
.	16qqgg/	.	.
8g 8e 8c# 8A#/	8ggg^<\L	.	.
8gJ 8e 8c# 8A#/	16fff#\L	.	.
.	16eee\JJ	.	.
*clefF4	*	*	*
=73	=73	=73	=73
*	*ped	*	*
8BL 8BB\	4ddd#X\	.	.
8F#\J	.	.	.
8d#XL 8B\	4b\	.	.
8F#\	.	.	.
8F#\	8dd#X^\L	.	.
!	!	!	!LO:DY:rj
8F#\J	16cc#X\L	.	p
.	16b\JJ	.	.
*	*Xped	*	*
!LO:LB:g=original	!LO:LB:g=original	!	!
=74	=74	=74	=74
*	*ped	*	*
8F#L 8FF#\	8a#X\L	.	.
8F#\J	8gg#X^\J	.	.
8eL 8c#X\	8ff#\L	.	.
8F#\J	(16cc#X\L	.	.
.	16dd#X\JJ	.	.
8eL 8c#\	16ee\LL	.	.
.	16dd#\	.	.
[8F#\J	16cc#\	.	.
*	*Xped	*	*
.	16ff#\JJ)	.	.
=75	=75	=75	=75
8d#XL 8B 8F#\]	8dd#X\L	.	.
8F#\	(16b\L	.	.
.	16cc#X\JJ	.	.
8d# 8B\	16dd#X\LL	.	.
.	16ee\	.	.
!	!LO:TX:b:t=legato tutto.	!	!
8F#\	16ff#X\	.	.
.	16gg#X\JJ	.	.
8F#\	16aa#X\LL	.	.
.	16bb\	.	.
8F#\J	16ccc#X\	.	.
.	16ddd#X\JJ	.	.
=76	=76	=76	=76
8FF#\L	16eee\LL	.	.
.	16ff#\	.	.
8F#\	16eee\	.	.
.	16ddd#X\JJ	.	.
8e#X 8c#X 8A\	16ccc#X\LL	.	.
.	16ff#\	.	.
8F#\	16ccc#\	.	.
.	16bb\JJ	.	.
8F#\	16aa#X\LL	.	.
.	16ff#\	.	.
8F#\J	16aa#\	.	.
.	16gg\JJ	.	.
!LO:LB:g=original	!LO:LB:g=original	!	!
=77	=77	=77	=77
8d#XL 8B\	16ff#\LL	.	.
.	16dd#X\	.	.
8F#\J	16bb\	.	.
.	16aa#X\JJ	.	.
8d#L 8B\	16gg#X\LL	.	.
.	16ff#\	.	.
8F#\J	16ee\	.	.
.	16dd#X\JJ	.	.
8d#L 8B\	16cc#X\LL	.	.
.	16b\	.	.
8F#\J	16a#X\	.	.
.	16g#X\JJ)	.	.
=78	=78	=78	=78
8FF#\L	8f#/L|	.	.
8F#\	(16f#/L	.	.
.	16g#X/JJ	.	.
8e 8c#X\	16a#X/LL	.	.
.	16b/	.	.
8F#\	16cc#X/	.	.
.	16dd#X/JJ)	.	.
*	*8va	*	*
8F#\	(16eee\LL	.	.
.	16fff#\	.	.
8F#\J	16ggg#X\	.	.
.	16aaa#X\JJ	.	.
=79	=79	=79	=79
8d#XL 8B 8F#\	16bbb\LL	.	.
.	16fff#\	.	.
8F#\J	16ggg#X\	.	.
.	16aaa#X\JJ	.	.
8d#L 8B\	16bbb\LL	.	.
.	16cccc#X\	.	.
8F#\J	16dddd#X\	.	.
.	16eeee\JJ	.	.
8d#L 8B\	16fff#\LL	.	.
.	16ggg#X\	.	.
8F#\J	16aaa#X\	.	.
.	16bbb\JJ	.	.
!LO:LB:g=original	!LO:LB:g=original	!	!
=80	=80	=80	=80
*^	*	*	*
!LO:N:vis=2	!	!	!	!
8G/L	2G\	16aaa\LL	.	.
.	.	16fff##X\	.	.
8d#X 8A#X/	.	16dddd#X\	.	.
.	.	16cccc#X\JJ	.	.
8d# 8A#/	.	16aaa#X\LL	.	.
.	.	16fff##X\	.	.
8d#J 8A#/	.	16ddd#X\	.	.
.	.	16ccc#X\JJ)	.	.
*v	*v	*	*	*
*	*X8va	*	*
*^	*	*	*
!	!	!LO:TX:a:t=loco.	!	!
8G/L	4G\	16aa#X\LL	.	.
.	.	16ff##X\	.	.
8d#J 8A#/	.	16dd#X\	.	.
.	.	16cc#X\JJ	.	.
=81	=81	=81	=81	=81
*	*ped	*	*	*
!LO:N:vis=2	!	!	!	!
8G#X/L	2G#X\	16b\LL	1	.
.	.	16b\	4	.
8d#X 8B/	.	16b\	3	.
.	.	16b\JJ	2	.
8d# 8B/	.	16b\LL	1	.
.	.	16b\	3	.
8d#J 8B/	.	16b\	2	.
.	.	16b\JJ	1	.
*	*Xped	*	*	*
8Gn/L	4Gn\	16ee#X\LL	.	.
.	.	16b\	1	.
8dnJ 8B/	.	16b\	2	.
.	.	16b\JJ	1	.
=82	=82	=82	=82	=82
8F#/L	4F#\	(16ff#\LL	.	.
.	.	16b\)	.	.
8d#XJ 8B/	.	16b\	.	.
.	.	16b\JJ	.	.
8F#/L	4F#\	(16gg#X\LL	.	<
.	.	16b\)	.	.
8dnJ 8B/	.	16b\	.	.
.	.	16b\JJ	.	.
8E/L	4E\	(16aa#X\LL	.	.
.	.	16cc#X\)	.	.
8c#XJ 8G/	.	16cc#\	.	.
.	.	16cc#\JJ	.	.
!LO:PB:g=original	!LO:PB:g=original	!LO:PB:g=original	!	!
=83	=83	=83	=83	=83
*	*	*ped	*	*
!LO:N:vis=2	!	!	!	!
8D#X/L	2D#X\	(16bb\LL	.	.
.	.	16dd#X\	.	.
8B 8F#/	.	16bb\	.	.
.	.	16aa#X\JJ	.	.
8B 8F#/	.	16gg#X\LL	.	.
.	.	16ff#\	.	.
8BJ 8F#/	.	16ee\	.	.
.	.	16dd#X\JJ	.	.
*	*	*Xped	*	*
8D#/L	4D#\	16cc#X\LL	.	.
.	.	16b\	.	.
8d#XJ 8B/	.	16a#X\	.	.
.	.	16b\JJ	.	.
*v	*v	*	*	*
=84	=84	=84	=84
*	*	*	*^
2.e 2.c 2.G 2.E\	16b#X\LL	.	.	<
!	!LO:TX:b:t=espress.	!	!	!
.	16cc#X\	.	.	.
.	16cc##X\	.	.	.
.	16dd#X\JJ	.	.	.
.	16ee\LL	.	.	.
.	16ee#X\	.	.	.
.	16ff#\	.	.	.
.	16ff##X\JJ	.	.	[
.	16aa#X\LL	.	>	>
.	16gg#X\	.	.	.
.	16ee#\	.	.	.
.	16cc#X\JJ)	.	.	]
*	*	*	*v	*v
=85	=85	=85	=85
2d#X 2B 2F#\	(16b\LL	.	<
.	16a#X\	.	.
.	16b\	.	.
.	16b#X\JJ	.	.
.	16cc#X\LL	.	[
.	16cc##X\	.	.
.	16dd#X\	.	.
.	16ee\JJ)	.	.
!	!	!	!LO:HP:a
4e 4A#X 4F#\	(16.gg#X\LL	.	>
.	32ff#\K	.	.
.	16.ee\	.	]
.	32cc#X\JJk)	.	.
!LO:LB:g=original	!LO:LB:g=original	!	!
=86	=86	=86	=86
2d#X 2B 2F#\	(16b\LL	.	.
.	16b#X\	.	.
.	16cc#X\	.	.
.	16cc##X\JJ	.	.
!	!LO:TX:b:t=riten&colon;	!	!
.	16dd#X\LL	.	.
.	16ee\	.	.
.	16ee#X\	.	.
.	16ff#\JJ	.	.
!	!	!	!LO:HP:a
4d# 4B 4F#\	16.gg#X\LL	.	>
.	32ff#\K	.	]
.	16.ee#\	.	.
.	32cc#X\JJk)	.	.
=87	=87	=87	=87
4d#X 4B\	(16b\LL	.	.
.	16b#X\	.	.
.	16cc#X\	.	.
.	16cc##X\JJ	.	<
4r	16dd#X\LL	.	.
.	16ee\	.	.
.	16ee#X\	.	.
.	16ff#\JJ	.	.
4r	16ff##X\LL	.	.
.	16gg#X\	.	.
.	16aa\	.	.
.	16aa#X\JJ)	.	[
=88	=88	=88	=88
2.r	(16bb\LL	.	<
.	16bb#X\	.	.
.	16ccc#X\	.	.
.	16ccc##X\JJ	.	.
.	16ddd#X\LL	.	.
.	16eee\	.	.
.	16eee#X\	.	.
.	16fff#\JJ	.	[
.	16fff##X\LL	.	.
.	16ggg#X\	.	.
.	16aaa\	.	.
.	16aaa#X\JJ)	.	.
*clefG2	*	*	*
!LO:LB:g=original	!LO:LB:g=original	!	!
=89	=89	=89	=89
*	*ped	*	*
8r	8bbb'\	.	.
8fff# 8ddd#X\	8r	.	.
8r	8bb'\	.	.
8ff# 8dd#X\	8r	.	.
8r	8b'\	.	.
8f# 8d#X/	8r	.	.
*clefF4	*	*	*
=90	=90	=90	=90
8r	8B/	.	.
(8F#L 8D#X/	8r	.	.
8BBJ/)	8.r	.	.
*	*Xped	*	*
8r	.	.	.
.	(16bLk\	.	.
4r	8ee\	.	.
.	16r	.	.
.	16gg\)Jk	.	.
=91	=91	=91	=91
12E\L	(4bb'\	.	p
12G\	.	.	.
12B\J	.	.	.
12e\L	4bb'\	.	.
12B\	.	.	.
12G\J	.	.	.
12E\L	4bb'\)	.	.
12G\	.	.	.
12B\J	.	.	.
=92	=92	=92	=92
12E\L	4bb'\	.	<
12G\	.	.	.
12B\J	.	.	.
.	(<16qqddd/	.	.
12E\L	4ccc\)	.	[ >
12A\	.	.	.
12c\J	.	.	.
12E\L	4bb\	.	.
12G\	.	.	]
12B\J	.	.	.
!LO:LB:g=original	!LO:LB:g=original	!	!
=93	=93	=93	=93
*^	*	*	*
12D#X/L	[2BB\	4bb'\	.	.
12F#/	.	.	.	.
12B/J	.	.	.	.
12D#/L	.	(8.aa\L	.	.
12F#/	.	.	.	.
12B/J	.	.	.	.
.	.	16gg\Jk	.	.
12D#/L	4BB\_	8.ff#\L	.	.
12F#/	.	.	.	.
12D#/J	.	.	.	.
.	.	16bb\Jk)	.	.
=94	=94	=94	=94	=94
12E/L	2BB\_	(4ee\	.	.
12G/	.	.	.	.
12B/J	.	.	.	.
[[<12D#X/L	.	4ff#\)	.	.
[[[<12F#/	.	.	.	.
[12B/J	.	.	.	.
8B/]	8F#]]] 8D#]] 8BB\]	8.b^\L	.	.
8r	8ryy	.	.	.
.	.	(32ee\LL	.	.
.	.	32gg\JJJ	.	.
*v	*v	*	*	*
=95	=95	=95	=95
12E\L	(4bb'\)	.	p
12G\	.	.	.
12B\J	.	.	.
12e\L	4bb'\	.	.
12B\	.	.	.
12G\J	.	.	.
12E\L	4bb'\)	.	.
12G\	.	.	.
12B\J	.	.	.
!LO:LB:g=original	!LO:LB:g=original	!	!
=96	=96	=96	=96
*^	*	*	*
12G/L	4E\	4bb\	.	.
12B/	.	.	.	.
12e/J	.	.	.	.
12A/L	4E\	8.ddd^<\L	.	.
12c/	.	.	.	.
12e/J	.	.	.	.
.	.	16ccc\Jk	.	.
12G/L	4E\	4bb\	.	.
12B/	.	.	.	.
12e/J	.	.	.	.
=97	=97	=97	=97	=97
12D#X/L	4ryy	4bb\	.	.
12F#/	.	.	.	.
12B/J	.	.	.	.
12D#/L	2BB\	(8.aa\L	.	.
12F#/	.	.	.	.
12B/J	.	.	.	.
.	.	16gg\Jk	.	.
12D#/L	.	8.ff#\L	.	.
12F#/	.	.	.	.
12B/J	.	.	.	.
.	.	16dd\Jk)	.	.
*v	*v	*	*	*
=98	=98	=98	=98
*>C1	*>C1	*>C1	*>C1
12E\L	2ee\	.	.
12G\	.	.	.
12B\J	.	.	.
12e\L	.	.	.
12B\	.	.	.
12G\J	.	.	.
8E\	4r	.	.
8r	.	.	.
=99:|!	=99:|!	=99:|!	=99:|!
*>C2	*>C2	*>C2	*>C2
4G 4E\	4ee\	.	.
!LO:TX:b:t=Polonaise D&colon;C&colon;	!	!	!
4d: 4A: 4F#: 4D:\	4ff#: 4dd: 4cc: 4a:\	.	.
4r	4r	.	.
==	==	==	==
*-	*-	*-	*-
!!!system-decoration: {(s1,s2)}
!!!RDF**kern: < = below
!!!RDF**kern: | = vertical stroke
!!!RDF**dynam: rfz = "rf"
!!!RDF**dynam: < = "cres", fontstyle = "normal"
!!!RDF**dynam: > = "dim:", fontstyle = "normal"
!!!ENC: Anastazja Marusiak
!!!END: 2022-01-31
!!!ENC: Marta Lawrence
!!!END: 2022-02-09
